Lila_HD/apps/scalable/gnome-disks-state-standby-symbolic.svg

<?xml version='1.0' encoding='UTF-8' standalone='no'?>
<!-- Created with Inkscape (http://www.inkscape.org/) -->

<svg xmlns:cc='http://creativecommons.org/ns#' xmlns:dc='http://purl.org/dc/elements/1.1/' sodipodi:docname='gnome-disks-state-standby-symbolic.svg' inkscape:export-filename='/home/sam/source-symbolic.png' inkscape:export-xdpi='270' inkscape:export-ydpi='270' height='16' id='svg7384' xmlns:inkscape='http://www.inkscape.org/namespaces/inkscape' xmlns:osb='http://www.openswatchbook.org/uri/2009/osb' xmlns:rdf='http://www.w3.org/1999/02/22-rdf-syntax-ns#' xmlns:sodipodi='http://sodipodi.sourceforge.net/DTD/sodipodi-0.dtd' style='enable-background:new' xmlns:svg='http://www.w3.org/2000/svg' version='1.1' inkscape:version='0.91 r13725' width='16' xmlns='http://www.w3.org/2000/svg'>
  <sodipodi:namedview inkscape:bbox-nodes='true' inkscape:bbox-paths='false' bordercolor='#666666' borderlayer='false' borderopacity='1' inkscape:current-layer='g6058' inkscape:cx='32.771045' inkscape:cy='-2.0100708' gridtolerance='10' inkscape:guide-bbox='true' guidetolerance='10' id='namedview88' inkscape:object-nodes='true' inkscape:object-paths='true' objecttolerance='10' pagecolor='#f7f7f7' inkscape:pageopacity='1' inkscape:pageshadow='2' showborder='true' showgrid='false' showguides='true' inkscape:showpageshadow='false' inkscape:snap-bbox='true' inkscape:snap-bbox-edge-midpoints='false' inkscape:snap-bbox-midpoints='true' inkscape:snap-center='false' inkscape:snap-global='true' inkscape:snap-grids='true' inkscape:snap-intersection-paths='true' inkscape:snap-midpoints='true' inkscape:snap-nodes='true' inkscape:snap-object-midpoints='true' inkscape:snap-others='true' inkscape:snap-page='false' inkscape:snap-smooth-nodes='true' inkscape:snap-to-guides='true' inkscape:window-height='711' inkscape:window-maximized='1' inkscape:window-width='1366' inkscape:window-x='0' inkscape:window-y='27' inkscape:zoom='1'>
    <inkscape:grid color='#000000' dotted='false' empcolor='#0800ff' empopacity='0.4627451' empspacing='4' enabled='true' id='grid4866' opacity='0.16470588' originx='-444.00027' originy='-116.01007' snapvisiblegridlinesonly='true' spacingx='0.25px' spacingy='0.25px' type='xygrid' visible='true'/>
  </sodipodi:namedview>
  <metadata id='metadata90'>
    <rdf:RDF>
      <cc:Work rdf:about=''>
        <dc:format>image/svg+xml</dc:format>
        <dc:type rdf:resource='http://purl.org/dc/dcmitype/StillImage'/>
        <dc:title>Paper Symbolic Icon Theme</dc:title>
      </cc:Work>
    </rdf:RDF>
  </metadata>
  <title id='title8473'>Paper Symbolic Icon Theme</title>
  <defs id='defs7386'>
    <linearGradient id='linearGradient5606' osb:paint='solid'>
      <stop id='stop5608' offset='0' style='stop-color:#000000;stop-opacity:1;'/>
    </linearGradient>
    <filter inkscape:collect='always' id='filter7554' style='color-interpolation-filters:sRGB'>
      <feBlend inkscape:collect='always' id='feBlend7556' in2='BackgroundImage' mode='darken'/>
    </filter>
  </defs>
  <g inkscape:groupmode='layer' id='layer9' inkscape:label='status' style='display:inline' transform='translate(-685.00047,-100.98993)'/>
  <g inkscape:groupmode='layer' id='layer10' inkscape:label='devices' style='display:inline;filter:url(#filter7554)' transform='translate(-685.00047,-100.98993)'/>
  <g inkscape:groupmode='layer' id='layer1' inkscape:label='places' style='display:inline' transform='translate(-444.00027,-717.98993)'/>
  <g inkscape:groupmode='layer' id='layer14' inkscape:label='mimetypes' style='display:inline' transform='translate(-685.00047,-100.98993)'/>
  <g inkscape:groupmode='layer' id='layer15' inkscape:label='emblems' style='display:inline' transform='translate(-685.00047,-100.98993)'/>
  <g inkscape:groupmode='layer' id='g71291' inkscape:label='emotes' style='display:inline' transform='translate(-685.00047,-100.98993)'/>
  <g inkscape:groupmode='layer' id='layer2' inkscape:label='categories' style='display:inline' transform='translate(-444.00027,-567.98993)'/>
  <g inkscape:groupmode='layer' id='g6058' inkscape:label='apps' style='display:inline' transform='translate(-444.00027,-567.98993)'>
    <path inkscape:connector-curvature='0' d='m 446,570 0,1 0.5,0 2.95898,0 L 446,575.32422 446,576 l 4.5,0 0.5,0 0,-1 -0.5,0 -2.95898,0 L 451,570.67578 451,570 l -4.5,0 -0.5,0 z' id='path6670' style='color:#000000;font-style:normal;font-variant:normal;font-weight:normal;font-stretch:normal;font-size:medium;line-height:normal;font-family:sans-serif;text-indent:0;text-align:start;text-decoration:none;text-decoration-line:none;text-decoration-style:solid;text-decoration-color:#000000;letter-spacing:normal;word-spacing:normal;text-transform:none;direction:ltr;block-progression:tb;writing-mode:lr-tb;baseline-shift:baseline;text-anchor:start;white-space:normal;clip-rule:nonzero;display:inline;overflow:visible;visibility:visible;opacity:1;isolation:auto;mix-blend-mode:normal;color-interpolation:sRGB;color-interpolation-filters:linearRGB;solid-color:#000000;solid-opacity:1;fill:#555555;fill-opacity:1;fill-rule:evenodd;stroke:none;stroke-width:1px;stroke-linecap:square;stroke-linejoin:miter;stroke-miterlimit:4;stroke-dasharray:none;stroke-dashoffset:0;stroke-opacity:1;color-rendering:auto;image-rendering:auto;shape-rendering:auto;text-rendering:auto;enable-background:accumulate'/>
    <path inkscape:connector-curvature='0' d='m 450,573 0,1 0.5,0 2.95898,0 L 450,578.32422 450,579 l 4.5,0 0.5,0 0,-1 -0.5,0 -2.95898,0 L 455,573.67578 455,573 l -4.5,0 -0.5,0 z' id='path6685' style='color:#000000;font-style:normal;font-variant:normal;font-weight:normal;font-stretch:normal;font-size:medium;line-height:normal;font-family:sans-serif;text-indent:0;text-align:start;text-decoration:none;text-decoration-line:none;text-decoration-style:solid;text-decoration-color:#000000;letter-spacing:normal;word-spacing:normal;text-transform:none;direction:ltr;block-progression:tb;writing-mode:lr-tb;baseline-shift:baseline;text-anchor:start;white-space:normal;clip-rule:nonzero;display:inline;overflow:visible;visibility:visible;opacity:1;isolation:auto;mix-blend-mode:normal;color-interpolation:sRGB;color-interpolation-filters:linearRGB;solid-color:#000000;solid-opacity:1;fill:#555555;fill-opacity:1;fill-rule:evenodd;stroke:none;stroke-width:1px;stroke-linecap:square;stroke-linejoin:miter;stroke-miterlimit:4;stroke-dasharray:none;stroke-dashoffset:0;stroke-opacity:1;color-rendering:auto;image-rendering:auto;shape-rendering:auto;text-rendering:auto;enable-background:accumulate'/>
    <path inkscape:connector-curvature='0' d='m 454,576 0,1 0.5,0 2.95898,0 L 454,581.32422 454,582 l 4.5,0 0.5,0 0,-1 -0.5,0 -2.95898,0 L 459,576.67578 459,576 l -4.5,0 -0.5,0 z' id='path6687' style='color:#000000;font-style:normal;font-variant:normal;font-weight:normal;font-stretch:normal;font-size:medium;line-height:normal;font-family:sans-serif;text-indent:0;text-align:start;text-decoration:none;text-decoration-line:none;text-decoration-style:solid;text-decoration-color:#000000;letter-spacing:normal;word-spacing:normal;text-transform:none;direction:ltr;block-progression:tb;writing-mode:lr-tb;baseline-shift:baseline;text-anchor:start;white-space:normal;clip-rule:nonzero;display:inline;overflow:visible;visibility:visible;opacity:1;isolation:auto;mix-blend-mode:normal;color-interpolation:sRGB;color-interpolation-filters:linearRGB;solid-color:#000000;solid-opacity:1;fill:#555555;fill-opacity:1;fill-rule:evenodd;stroke:none;stroke-width:1px;stroke-linecap:square;stroke-linejoin:miter;stroke-miterlimit:4;stroke-dasharray:none;stroke-dashoffset:0;stroke-opacity:1;color-rendering:auto;image-rendering:auto;shape-rendering:auto;text-rendering:auto;enable-background:accumulate'/>
    
  </g>
  <g inkscape:groupmode='layer' id='layer12' inkscape:label='actions' style='display:inline' transform='translate(-685.00047,-100.98993)'/>
</svg>

<?xml version="1.0" encoding="UTF-8"?>
<!-- Created with Inkscape (http://www.inkscape.org/) -->
<svg enable-background="new" version="1.1" viewBox="0 0 16 16" xmlns="http://www.w3.org/2000/svg" xmlns:cc="http://creativecommons.org/ns#" xmlns:dc="http://purl.org/dc/elements/1.1/" xmlns:osb="http://www.openswatchbook.org/uri/2009/osb" xmlns:rdf="http://www.w3.org/1999/02/22-rdf-syntax-ns#">
<metadata>
<rdf:RDF>
<cc:Work rdf:about="">
<dc:format>image/svg+xml</dc:format>
<dc:type rdf:resource="http://purl.org/dc/dcmitype/StillImage"/>
<dc:title>Paper Symbolic Icon Theme</dc:title>
</cc:Work>
</rdf:RDF>
</metadata>
<title>Paper Symbolic Icon Theme</title>
<defs>
<filter color-interpolation-filters="sRGB">
<feBlend in2="BackgroundImage" mode="darken"/>
</filter>
</defs>
<g transform="translate(-444 -567.99)" fill="#555" fill-rule="evenodd" shape-rendering="auto">
<path d="m446 570v1h0.5 2.959l-3.459 4.3242v0.67578h4.5 0.5v-1h-0.5-2.959l3.459-4.3242v-0.67578h-4.5-0.5z" color="#000000" color-rendering="auto" enable-background="accumulate" image-rendering="auto" solid-color="#000000" style="block-progression:tb;isolation:auto;mix-blend-mode:normal;text-decoration-color:#000000;text-decoration-line:none;text-decoration-style:solid;text-indent:0;text-transform:none;white-space:normal"/>
<path d="m450 573v1h0.5 2.959l-3.459 4.3242v0.67578h4.5 0.5v-1h-0.5-2.959l3.459-4.3242v-0.67578h-4.5-0.5z" color="#000000" color-rendering="auto" enable-background="accumulate" image-rendering="auto" solid-color="#000000" style="block-progression:tb;isolation:auto;mix-blend-mode:normal;text-decoration-color:#000000;text-decoration-line:none;text-decoration-style:solid;text-indent:0;text-transform:none;white-space:normal"/>
<path d="m454 576v1h0.5 2.959l-3.459 4.3242v0.67578h4.5 0.5v-1h-0.5-2.959l3.459-4.3242v-0.67578h-4.5-0.5z" color="#000000" color-rendering="auto" enable-background="accumulate" image-rendering="auto" solid-color="#000000" style="block-progression:tb;isolation:auto;mix-blend-mode:normal;text-decoration-color:#000000;text-decoration-line:none;text-decoration-style:solid;text-indent:0;text-transform:none;white-space:normal"/>
</g>
</svg>
